icons/desktop/16/svg/audio-muted-16.svg

<svg width="16" height="16" viewBox="0 0 16 16" fill="none" xmlns="http://www.w3.org/2000/svg">
<path d="M4.89648 2.1593C5.75648 0.694302 8 1.30405 8 3.00305V12.9972C7.9997 14.6958 5.75655 15.3055 4.89648 13.8409L3.2168 10.9816C3.09385 10.9846 2.94697 11.0001 2.83203 11.0001C2.36403 11.0001 1.92267 10.9757 1.51367 10.9357C0.653841 10.8505 0 10.1345 0 9.27161V6.72571C7.13298e-05 5.8848 0.626962 5.15452 1.46387 5.06848C1.96687 5.01748 2.42703 5.00012 2.83203 5.00012C2.96592 5.00012 3.09082 5.00784 3.2207 5.01184L4.89648 2.1593Z" fill="black"/>
<path d="M14.7197 4.96887C15.0127 4.67587 15.4882 4.67587 15.7812 4.96887C16.074 5.26176 16.0738 5.73643 15.7812 6.02942L13.8115 7.99915L15.7812 9.96887C16.074 10.2618 16.0738 10.7364 15.7812 11.0294C15.6353 11.1754 15.443 11.2501 15.251 11.2501C15.059 11.2501 14.8657 11.1764 14.7197 11.0294L12.75 9.05969L10.7812 11.0294C10.6353 11.1754 10.443 11.2501 10.251 11.2501C10.059 11.2501 9.86573 11.1764 9.71973 11.0294C9.42714 10.7364 9.42697 10.2618 9.71973 9.96887L11.6895 7.99915L9.71973 6.02942C9.42714 5.73643 9.42697 5.26176 9.71973 4.96887C10.0127 4.67587 10.4882 4.67587 10.7812 4.96887L12.75 6.93762L14.7197 4.96887Z" fill="black"/>
</svg>

<!-- This Source Code Form is subject to the terms of the Mozilla Public
   - License, v. 2.0. If a copy of the MPL was not distributed with this
   - file, You can obtain one at http://mozilla.org/MPL/2.0/. -->
<svg xmlns="http://www.w3.org/2000/svg" width="16" height="16" fill="context-fill" fill-opacity="context-fill-opacity" viewBox="0 0 16 16">
    <path d="M4.896 2.16C5.756.693 8 1.303 8 3.002v9.994c0 1.699-2.243 2.309-3.104.844l-1.68-2.86c-.122.004-.269.02-.384.02-.468 0-.91-.025-1.318-.065A1.67 1.67 0 0 1 0 9.272V6.726c0-.841.627-1.571 1.464-1.658.503-.05.963-.068 1.368-.068.134 0 .259.008.389.012zM14.72 4.969a.75.75 0 0 1 1.061 1.06L13.811 8l1.97 1.97a.75.75 0 1 1-1.061 1.06l-1.97-1.97-1.969 1.97A.75.75 0 1 1 9.72 9.97l1.97-1.97-1.97-1.97a.75.75 0 0 1 1.061-1.06l1.969 1.969z" />
</svg>
